X:5895
T:Gan Ainm
R:Reel
S:
H:
N:Played like a slow reel - (or hornpipe?)
D:
Z:Adrian Scahill
M:4/4
L:1/8
K:C
ed|cAAG AcBA|GEDE G2ed|cAAG A2(3Bcd|egg2 aged|\
(3cBA (3BAG AcBA|GEDE GDEG|A2Ac BAGB|1 (3ABA GB A2ed:|2 (3ABA GB A2ce||\
g2ag gecG|cega gcc'b|a3a ageg|ageg a3e|\
g3e d2ed|cdeg a2ag|e2ed cAGE|A2GB A2ce:||


